Numix/16/status/indicator-keyboard-Lv-2.svg

<?xml version="1.0" encoding="UTF-8" standalone="no"?>
<svg
   xmlns:dc="http://purl.org/dc/elements/1.1/"
   xmlns:cc="http://creativecommons.org/ns#"
   xmlns:rdf="http://www.w3.org/1999/02/22-rdf-syntax-ns#"
   xmlns:svg="http://www.w3.org/2000/svg"
   xmlns="http://www.w3.org/2000/svg"
   xmlns:sodipodi="http://sodipodi.sourceforge.net/DTD/sodipodi-0.dtd"
   xmlns:inkscape="http://www.inkscape.org/namespaces/inkscape"
   viewBox="0 0 16 16"
   id="svg2"
   version="1.1"
   inkscape:version="0.91 r13725"
   sodipodi:docname="indicator-keyboard-Lv-2.svg">
  <metadata
     id="metadata14">
    <rdf:RDF>
      <cc:Work
         rdf:about="">
        <dc:format>image/svg+xml</dc:format>
        <dc:type
           rdf:resource="http://purl.org/dc/dcmitype/StillImage" />
      </cc:Work>
    </rdf:RDF>
  </metadata>
  <defs
     id="defs12" />
  <sodipodi:namedview
     pagecolor="#ffffff"
     bordercolor="#666666"
     borderopacity="1"
     objecttolerance="10"
     gridtolerance="10"
     guidetolerance="10"
     inkscape:pageopacity="0"
     inkscape:pageshadow="2"
     inkscape:window-width="640"
     inkscape:window-height="480"
     id="namedview10"
     showgrid="false"
     inkscape:zoom="14.75"
     inkscape:cx="8"
     inkscape:cy="8"
     inkscape:window-x="65"
     inkscape:window-y="24"
     inkscape:window-maximized="0"
     inkscape:current-layer="svg2" />
  <path
     style="fill:#ececec;fill-opacity:1"
     d="M 1.5996094 0 C 0.71320937 2.9605947e-16 0 0.71320937 0 1.5996094 L 0 14.400391 C 2.9605947e-16 15.286791 0.71320937 16 1.5996094 16 L 14.400391 16 C 15.286791 16 16 15.286791 16 14.400391 L 16 1.5996094 C 16 0.71320937 15.286791 0 14.400391 0 L 1.5996094 0 z M 2.7128906 4.859375 L 3.3242188 4.859375 L 3.3242188 10.564453 L 6.2578125 10.564453 L 6.2578125 11.095703 L 2.7128906 11.095703 L 2.7128906 4.859375 z M 6.3359375 6.4433594 L 6.9570312 6.4433594 C 7.0290313 6.7613594 7.11675 7.10275 7.21875 7.46875 C 7.32675 7.82875 7.4405469 8.1888281 7.5605469 8.5488281 C 7.6865469 8.9028281 7.8152656 9.2479844 7.9472656 9.5839844 C 8.0792656 9.9139846 8.2079844 10.208797 8.3339844 10.466797 C 8.4599844 10.208797 8.5887031 9.9139846 8.7207031 9.5839844 C 8.8527031 9.2479844 8.9796094 8.9028281 9.0996094 8.5488281 C 9.2256094 8.1888281 9.3394063 7.82875 9.4414062 7.46875 C 9.5494062 7.10275 9.6389375 6.7613594 9.7109375 6.4433594 L 10.294922 6.4433594 C 10.186922 6.8693594 10.067547 7.289125 9.9355469 7.703125 C 9.8035469 8.117125 9.6636719 8.5219688 9.5136719 8.9179688 C 9.3696719 9.3139687 9.2166875 9.6945467 9.0546875 10.060547 C 8.8986875 10.426547 8.7457031 10.771703 8.5957031 11.095703 L 8.0371094 11.095703 C 7.8811094 10.771703 7.7243594 10.426547 7.5683594 10.060547 C 7.4123594 9.6945467 7.259375 9.3139687 7.109375 8.9179688 C 6.965375 8.5219688 6.8273125 8.117125 6.6953125 7.703125 C 6.5633125 7.289125 6.4439375 6.8693594 6.3359375 6.4433594 z M 11.960938 8.7539062 C 12.354837 8.7539062 12.650709 8.851875 12.849609 9.046875 C 13.048509 9.237975 13.148438 9.5044563 13.148438 9.8476562 C 13.148438 9.9997563 13.121006 10.14475 13.066406 10.28125 C 13.011806 10.41385 12.93735 10.543169 12.84375 10.667969 C 12.75405 10.792769 12.650203 10.912297 12.533203 11.029297 C 12.416203 11.146297 12.296681 11.263859 12.175781 11.380859 C 12.074381 11.478359 11.976406 11.578288 11.878906 11.679688 C 11.785306 11.777188 11.699094 11.877116 11.621094 11.978516 C 11.546994 12.076016 11.486253 12.172031 11.439453 12.269531 C 11.396553 12.363131 11.375 12.457181 11.375 12.550781 L 11.375 12.5625 L 13.287109 12.5625 L 13.287109 12.896484 L 10.953125 12.896484 C 10.953125 12.888684 10.951199 12.874969 10.947266 12.855469 L 10.947266 12.755859 C 10.947266 12.572559 10.980575 12.402094 11.046875 12.246094 C 11.113175 12.086194 11.197428 11.937275 11.298828 11.796875 C 11.404128 11.656475 11.519731 11.525197 11.644531 11.404297 C 11.773231 11.283397 11.896672 11.165834 12.013672 11.052734 C 12.111172 10.959134 12.201309 10.869003 12.287109 10.783203 C 12.376809 10.693503 12.455184 10.603366 12.521484 10.509766 C 12.587784 10.416166 12.640687 10.316238 12.679688 10.210938 C 12.718687 10.105638 12.738281 9.9900344 12.738281 9.8652344 C 12.738281 9.5922344 12.663825 9.39825 12.515625 9.28125 C 12.371325 9.16035 12.189097 9.0996094 11.966797 9.0996094 C 11.841997 9.0996094 11.730312 9.1152844 11.632812 9.1464844 C 11.535313 9.1776844 11.4491 9.2149125 11.375 9.2578125 C 11.3048 9.2968125 11.244059 9.3379594 11.193359 9.3808594 C 11.142659 9.4237594 11.105431 9.4570688 11.082031 9.4804688 L 10.882812 9.2167969 C 10.906212 9.1894969 10.94736 9.1503094 11.005859 9.0996094 C 11.068259 9.0450094 11.144675 8.9921062 11.234375 8.9414062 C 11.327975 8.8907063 11.435741 8.8476 11.556641 8.8125 C 11.677541 8.7735 11.812738 8.7539063 11.960938 8.7539062 z "
     id="path4" />
</svg>

<svg xmlns="http://www.w3.org/2000/svg" viewBox="0 0 16 16">
 <path d="m 1.6 0 c -0.886 0 -1.6 0.713 -1.6 1.6 l 0 12.801 c 0 0.886 0.713 1.6 1.6 1.6 l 12.801 0 c 0.886 0 1.6 -0.713 1.6 -1.6 l 0 -12.801 c 0 -0.886 -0.713 -1.6 -1.6 -1.6 l -12.801 0 z m 1.113 4.859 l 0.611 0 l 0 5.705 l 2.934 0 l 0 0.531 l -3.545 0 l 0 -6.236 z m 3.623 1.584 l 0.621 0 c 0.072 0.318 0.16 0.659 0.262 1.025 c 0.108 0.36 0.222 0.72 0.342 1.08 c 0.126 0.354 0.255 0.699 0.387 1.035 c 0.132 0.33 0.261 0.625 0.387 0.883 c 0.126 -0.258 0.255 -0.553 0.387 -0.883 c 0.132 -0.336 0.259 -0.681 0.379 -1.035 c 0.126 -0.36 0.24 -0.72 0.342 -1.08 c 0.108 -0.366 0.198 -0.707 0.27 -1.025 l 0.584 0 c -0.108 0.426 -0.227 0.846 -0.359 1.26 c -0.132 0.414 -0.272 0.819 -0.422 1.215 c -0.144 0.396 -0.297 0.777 -0.459 1.143 c -0.156 0.366 -0.309 0.711 -0.459 1.035 l -0.559 0 c -0.156 -0.324 -0.313 -0.669 -0.469 -1.035 c -0.156 -0.366 -0.309 -0.747 -0.459 -1.143 c -0.144 -0.396 -0.282 -0.801 -0.414 -1.215 c -0.132 -0.414 -0.251 -0.834 -0.359 -1.26 z m 5.625 2.311 c 0.394 0 0.69 0.098 0.889 0.293 c 0.199 0.191 0.299 0.458 0.299 0.801 c 0 0.152 -0.027 0.297 -0.082 0.434 c -0.055 0.133 -0.129 0.262 -0.223 0.387 c -0.09 0.125 -0.194 0.244 -0.311 0.361 c -0.117 0.117 -0.237 0.235 -0.357 0.352 c -0.101 0.098 -0.199 0.197 -0.297 0.299 c -0.094 0.098 -0.18 0.197 -0.258 0.299 c -0.074 0.097 -0.135 0.194 -0.182 0.291 c -0.043 0.094 -0.064 0.188 -0.064 0.281 l 0 0.012 l 1.912 0 l 0 0.334 l -2.334 0 c 0 -0.008 -0.002 -0.022 -0.006 -0.041 l 0 -0.1 c 0 -0.183 0.033 -0.354 0.1 -0.51 c 0.066 -0.16 0.151 -0.309 0.252 -0.449 c 0.105 -0.14 0.221 -0.272 0.346 -0.393 c 0.129 -0.121 0.252 -0.238 0.369 -0.352 c 0.098 -0.094 0.188 -0.184 0.273 -0.27 c 0.09 -0.09 0.168 -0.18 0.234 -0.273 c 0.066 -0.094 0.119 -0.194 0.158 -0.299 c 0.039 -0.105 0.059 -0.221 0.059 -0.346 c 0 -0.273 -0.074 -0.467 -0.223 -0.584 c -0.144 -0.121 -0.327 -0.182 -0.549 -0.182 c -0.125 0 -0.236 0.016 -0.334 0.047 c -0.097 0.031 -0.184 0.068 -0.258 0.111 c -0.07 0.039 -0.131 0.08 -0.182 0.123 c -0.051 0.043 -0.088 0.076 -0.111 0.1 l -0.199 -0.264 c 0.023 -0.027 0.065 -0.066 0.123 -0.117 c 0.062 -0.055 0.139 -0.108 0.229 -0.158 c 0.094 -0.051 0.201 -0.094 0.322 -0.129 c 0.121 -0.039 0.256 -0.059 0.404 -0.059 z" style="fill:#ececec;fill-opacity:1"/>
</svg>
